icons/svg/old_road_shields/h_sec_shield5.svg

<svg width="46" height="17" viewBox="0 0 46 17" fill="none" xmlns="http://www.w3.org/2000/svg">
<g clip-path="url(#clip0)">
<path fill-rule="evenodd" clip-rule="evenodd" d="M8.01099 0.0169983H37.325C41.753 0.0169983 45.353 3.622 45.353 8.058V8.945C45.353 13.379 41.752 16.984 37.325 16.984H8.01099C3.61099 16.984 0.0109863 13.379 0.0109863 8.945V8.058C0.0109863 3.622 3.60999 0.0169983 8.01099 0.0169983Z" fill="#E7B868"/>
<path fill-rule="evenodd" clip-rule="evenodd" d="M8.55399 0.931H36.811C40.753 0.931 43.954 4.165 43.954 8.085V8.916C43.954 12.836 40.754 16.07 36.811 16.07H8.55399C4.61099 16.07 1.38199 12.836 1.38199 8.916V8.085C1.38199 4.165 4.60999 0.931 8.55399 0.931Z" fill="white"/>
<path fill-rule="evenodd" clip-rule="evenodd" d="M8.72499 2.62H36.639C39.697 2.62 42.211 5.138 42.211 8.2V8.83C42.211 11.891 39.696 14.41 36.639 14.41H8.72499C5.63899 14.41 3.15399 11.89 3.15399 8.83V8.2C3.15299 5.138 5.63899 2.62 8.72499 2.62Z" fill="#E7B868"/>
</g>
<defs>
<clipPath id="clip0">
<path d="M0 0H45.365V17H0V0Z" fill="white"/>
</clipPath>
</defs>
</svg>

<?xml version="1.0" encoding="utf-8"?>
<!-- Generator: Adobe Illustrator 16.0.4, SVG Export Plug-In . SVG Version: 6.00 Build 0)  -->
<!DOCTYPE svg PUBLIC "-//W3C//DTD SVG 1.1//EN" "http://www.w3.org/Graphics/SVG/1.1/DTD/svg11.dtd">
<svg version="1.1" id="Слой_1" xmlns="http://www.w3.org/2000/svg" xmlns:xlink="http://www.w3.org/1999/xlink" x="0px" y="0px"
	 width="45.365px" height="17px" viewBox="0 0 45.365 17" enable-background="new 0 0 45.365 17" xml:space="preserve">
<path fill-rule="evenodd" clip-rule="evenodd" fill="#E7B868" d="M8.011,0.017h29.314c4.428,0,8.028,3.605,8.028,8.041v0.887
	c0,4.434-3.601,8.039-8.028,8.039H8.011c-4.4,0-8-3.605-8-8.039V8.058C0.011,3.622,3.61,0.017,8.011,0.017L8.011,0.017z"/>
<path fill-rule="evenodd" clip-rule="evenodd" fill="#FFFFFF" d="M8.554,0.931h28.257c3.942,0,7.143,3.234,7.143,7.154v0.831
	c0,3.92-3.2,7.154-7.143,7.154H8.554c-3.943,0-7.172-3.234-7.172-7.154V8.085C1.382,4.165,4.61,0.931,8.554,0.931L8.554,0.931z"/>
<path fill-rule="evenodd" clip-rule="evenodd" fill="#E7B868" d="M8.725,2.62h27.914c3.058,0,5.572,2.518,5.572,5.58V8.83
	c0,3.061-2.515,5.58-5.572,5.58H8.725c-3.086,0-5.571-2.52-5.571-5.58V8.2C3.153,5.138,5.639,2.62,8.725,2.62L8.725,2.62z"/>
</svg>
